X:0756
T:"The Templehouse Jig" (2nd Setting) 0756
C:after Sgt J. O'Neill
N:Anacrucis added
V
I:abc2nwc
M:6/8
L:1/8
K:G
G|EFE (G2E)|(B2E) (G2E)|DED (F2D)|(A2D) (F2D)|
EFE (G2E)|(B2E) (G2E)|BcB cBA|BGE E2:|
|:f|gbg ege|gbg ege|faf dfd|faf def|[1gbg ege|gbg ege|
gbg faf|bge e2:|[2gfe agf|bag fed|B^cd AGF|BGE E2|]

